svgs/sharp-solid/plane-tail.svg

<svg xmlns="http://www.w3.org/2000/svg" viewBox="0 0 512 512"><!--! Font Awesome Pro 6.6.0 by @fontawesome - https://fontawesome.com License - https://fontawesome.com/license (Commercial License) Copyright 2024 Fonticons, Inc. --><path d="M512 256l0 256-256 0L0 416l0-96 64-16L0 0 144 0 384 256l128 0zM224 352l-24 0 0 48 24 0 128 0 24 0 0-48-24 0-128 0z"/></svg>

<svg xmlns="http://www.w3.org/2000/svg" viewBox="0 0 512 512"><!--! Font Awesome Pro 6.5.2 by @fontawesome - https://fontawesome.com License - https://fontawesome.com/license (Commercial License) Copyright 2024 Fonticons, Inc. --><path d="M512 256V512H256L0 416V320l64-16L0 0H144L384 256H512zM224 352H200v48h24H352h24V352H352 224z"/></svg>
